!!!!SEGMENT: Ver2008-O_dulcissime_Domine_Jesu_Christe.krn
!!!id: Ver2008
!!!AGN: Motet
!!!SCT: Slim (1972)
!!!voices: 5
!!!COM: Philippe Verdelot
!!!OTL: O dulcissime Domine Jesu Christe
**kern	**kern	**kern	**kern	**kern
*part5	*part4	*part3	*part2	*part1
*staff5	*staff4	*staff3	*staff2	*staff1
*I"Bassus	*I"Tenor II	*I"Tenor I	*I"Altus	*I"Superius
*I'B	*I'T. II	*I'T. I	*I'A	*I'S
*clefF4	*clefGv2	*clefGv2	*clefGv2	*clefG2
*k[]	*k[]	*k[]	*k[]	*k[]
*C:	*C:	*C:	*C:	*C:
*M2/1	*M2/1	*M2/1	*M2/1	*M2/1
*met(C|)	*met(C|)	*met(C|)	*met(C|)	*met(C|)
!!section: Prima pars: O dulcissime Domine Jesu Christe
!!!OMD: Prima pars: O dulcissime Domine Jesu Christe
=1	=1	=1	=1	=1
0r	0r	1.E	0r	0r
.	.	2F	.	.
=2	=2	=2	=2	=2
0r	0r	1G	0r	0r
.	.	1G	.	.
=3	=3	=3	=3	=3
0r	0r	1A	0r	1.e
.	.	[1c	.	.
.	.	.	.	2f
=4	=4	=4	=4	=4
0r	0r	2c]	0r	1g
.	.	4B	.	.
.	.	4A	.	.
.	.	2B	.	1g
.	.	2B	.	.
=5	=5	=5	=5	=5
0r	0r	2A	1.A	1a
.	.	1c	.	.
.	.	.	.	[1cc
.	.	2B	2B	.
=6	=6	=6	=6	=6
0r	0r	2A	1c	2cc]
.	.	2G	.	2b
.	.	1F	1d	1a
=7	=7	=7	=7	=7
0r	1.E	1.G	1e	1g
.	.	.	[1g	1r
.	2F	2F	.	.
=8	=8	=8	=8	=8
0r	1G	2E	2g]	1.g
.	.	2D	2f	.
.	1G	[1C	2e	.
.	.	.	2d	2f
=9	=9	=9	=9	=9
1.AA	1A	1C]	1c	0e
.	[1c	1A	1r	.
2BB	.	.	.	.
=10	=10	=10	=10	=10
1C	2c]	1G	1.c	0e
.	2B	.	.	.
1C	2A	1E	.	.
.	2G	.	2B	.
=11	=11	=11	=11	=11
1D	1F	1r	2A	1d
.	.	.	2G	.
1r	1r	[1D	1F	[1f
=12	=12	=12	=12	=12
1.F	1.A	2D]	1r	2f]
.	.	2E	.	2g
.	.	2F	[1D	[1a
2E	2G	2G	.	.
=13	=13	=13	=13	=13
2D	2F	1A	2D]	1a]
2C	2E	.	2E	.
1BB-X	2.D	1d	2F	1r
.	.	.	2G	.
.	4E	.	.	.
=14	=14	=14	=14	=14
1AA	1F	1c	1A	2r
.	.	.	.	1cc
[1AA	1E	1r	[1e	.
.	.	.	.	2b
=15	=15	=15	=15	=15
1AA]	1r	1.c	1e]	1a
1C	1E	.	1e	1g
.	.	2B	.	.
=16	=16	=16	=16	=16
0D	1F	2.A	0d	0f
.	.	4G	.	.
.	1D	2F	.	.
.	.	[2A	.	.
=17	=17	=17	=17	=17
1AA	1E	2A]	1c#X	1e
.	.	2G	.	.
[1D	2D	2.F	[1d	[1f
.	[2A	.	.	.
.	.	4E	.	.
=18	=18	=18	=18	=18
1D]	2A]	1D	2d]	1f]
.	2F	.	2A	.
1C	2G	1E	1c	[1e
.	[2A	.	.	.
=19	=19	=19	=19	=19
0D	4A]	2.F	[0A	2e]
.	4G	.	.	.
.	4F	.	.	4d
.	4E	4G	.	4c
.	1F	2.A	.	1d
.	.	4B	.	.
=20	=20	=20	=20	=20
0AA;	0E;	0c;	0A;]	0e;
=21||	=21||	=21||	=21||	=21||
0r	0r	1A	1e	1a
.	.	[1d	[1f	[1a
=22	=22	=22	=22	=22
1r	1A	2d]	2f]	2a]
.	.	2c	2e	2a
1D	[1d	2d	1f	2a
.	.	2A	.	2a
=23	=23	=23	=23	=23
1.G	2d]	1B	0r	1g
.	2d	.	.	.
.	2.d	2A	.	1a
2F	.	2A	.	.
.	4c	.	.	.
=24	=24	=24	=24	=24
2G	2B	1.d	1d	0r
2D	2A	.	.	.
1E	1G	.	[1g	.
.	.	2c	.	.
=25	=25	=25	=25	=25
1D	1A	2d	2g]	1a
.	.	2A	2f	.
1r	1r	1B	2g	[1dd
.	.	.	2d	.
=26	=26	=26	=26	=26
1r	2r	0A	1e	2dd]
.	2A	.	.	2cc
1D	[1d	.	1f	2dd
.	.	.	.	2a
=27	=27	=27	=27	=27
1.G	2d]	0r	2r	1b
.	2d	.	2.d	.
.	2.d	.	.	1a
.	.	.	4e	.
2F	.	.	2f	.
.	4c	.	.	.
=28	=28	=28	=28	=28
2G	2B	0r	2e	1r
2D	2A	.	1d	.
1E	1G	.	.	1e
.	.	.	2c#i	.
=29	=29	=29	=29	=29
1D	0A	2r	1d	1f
.	.	2A	.	.
1AA	.	1c	1r	2e
.	.	.	.	2c
=30	=30	=30	=30	=30
2r	1G	2B	0r	2d
2E	.	2G	.	2e
1F	1r	2A	.	2.c
.	.	[2c	.	.
.	.	.	.	4d
=31	=31	=31	=31	=31
1E	2r	4c]	0e	4e
.	.	8BL	.	4f
.	.	8AJ	.	.
.	2B	1G	.	2.g
1C	1c	.	.	.
.	.	.	.	4f
.	.	[2G	.	2e
=32	=32	=32	=32	=32
1D	1A	2G]	1f	1d
.	.	2F	.	.
[1E	2.G	2G	1e	[1B
.	.	4E	.	.
.	4A	4F	.	.
=33	=33	=33	=33	=33
2E]	2B	4G	2r	1B]
.	.	4A	.	.
2E	2G	2.B	2e	.
2.D	1A	.	1f	1r
.	.	4A	.	.
.	.	[2A	.	.
4C	.	.	.	.
=34	=34	=34	=34	=34
1BB	1D	2A]	1d	1b
.	.	2G#i	.	.
1AA	2E	[1A	[1c	1cc
.	2E	.	.	.
=35	=35	=35	=35	=35
0r	1F	1A]	2c]	1a
.	.	.	2d	.
.	1E	2r	1e	[1g
.	.	2B	.	.
=36	=36	=36	=36	=36
0r	1C	1c	1e	2g]
.	.	.	.	2a
.	2D	2B	2d	1b
.	[2E	[2G	[2g	.
=37	=37	=37	=37	=37
1r	2E]	2G]	2g]	1cc
.	2F	2A	2.f	.
1E	2G	2B	.	2b
.	.	.	4e	.
.	2C	2G	[2e	[2cc
=38	=38	=38	=38	=38
1F	4F	1A	2e]	4cc]
.	4G	.	.	4b
.	4A	.	2d	2a
.	4F	.	.	.
2E	1G	2B	2e	2g
[2C	.	[2e	[2g	[2cc
=39	=39	=39	=39	=39
2C]	2E	2e]	2g]	2cc]
2D	2F	4d	2f	4b
.	.	4c	.	4a
2E	2G	2B	2e	2g
2C	2E	2e	[2g	2cc
=40	=40	=40	=40	=40
1D	1F	2.d	2g]	2b
.	.	.	2f	1a
.	.	4c	.	.
1E	2.G	1B	2.e	.
.	.	.	.	2g#i
.	4F	.	4d	.
=41	=41	=41	=41	=41
[0AA	2E	0A	0c	1a
.	2F	.	.	.
.	2E	.	.	2r
.	[2C	.	.	[2e
=42	=42	=42	=42	=42
1AA]	4C]	2r	0r	2e]
.	4D	.	.	.
.	2E	1A	.	2e
1r	1D	.	.	1f
.	.	2B	.	.
=43	=43	=43	=43	=43
0r	1C	1c	1r	1e
.	1r	1F	[1A	[1cc
=44	=44	=44	=44	=44
0r	0r	1.f	2A]	2cc]
.	.	.	2B	2b
.	.	.	1c	2a
.	.	2e	.	2g
=45	=45	=45	=45	=45
1r	0r	2d	1F	4a
.	.	.	.	4b
.	.	2c	.	4cc
.	.	.	.	4a
[1D	.	1d	[1f	2b
.	.	.	.	[2a
=46	=46	=46	=46	=46
2D]	1r	1B	2f]	2a]
2E	.	.	2e	2g
1F	2r	1A	2d	1a
.	[2A	.	2c	.
=47	=47	=47	=47	=47
1D	2A]	0r	1f	1r
.	2B	.	.	.
[1A	1c	.	1e	2r
.	.	.	.	2e
=48	=48	=48	=48	=48
2A]	1F	0r	1c	1.a
2G	.	.	.	.
2F	[1c	.	2r	.
2E	.	.	2G	2g
=49	=49	=49	=49	=49
2F	2c]	0r	2A	2f
2G	2B	.	2B	2d
1C	2A	.	[1c	4e
.	.	.	.	4f
.	2G	.	.	4g
.	.	.	.	4e
=50	=50	=50	=50	=50
2r	1A	1r	2c]	2f
2AA	.	.	2c	1e
[1D	1F	2r	1A	.
.	.	2D	.	2d
=51	=51	=51	=51	=51
2D]	1E	1.A	2r	2.e
2C	.	.	1c	.
.	.	.	.	8dL
.	.	.	.	8eJ
2AA	1r	.	.	2f
2BB	.	2G	2B	[2g
=52	=52	=52	=52	=52
1C	2r	1E	2G	4g]
.	.	.	.	4f
.	2E	.	2.A	1e
1D	[1A	1F	.	.
.	.	.	4G	.
.	.	.	4A	2d
.	.	.	4B	.
=53	=53	=53	=53	=53
2AA	2A]	2.E	1.c	1e
1C	2G	.	.	.
.	.	4F	.	.
.	2.E	1G	.	2.e
4BB	.	.	2c	.
4AA	4F	.	.	4d
=54	=54	=54	=54	=54
2GG	2G	2r	2B	2e
1FF	1A	2c	2A	1f
.	.	2A	2c	.
2GG	2G	2B	2B	[2e
=55	=55	=55	=55	=55
2AA	1F	2c	2A	2e]
2BB	.	2.B	1d	2d
2.C	1E	.	.	1e
.	.	4A	.	.
.	.	[2A	2c	.
4D	.	.	.	.
=56	=56	=56	=56	=56
1E	2r	2A]	1B	2r
.	2B	2G	.	1e
1AA	2.c	2A	2r	.
.	.	[2c	[2A	2e
.	4B	.	.	.
=57	=57	=57	=57	=57
0r	2A	2c]	2A]	2f
.	2G	1B	2B	2g
.	2F	.	2c	1a
.	2F	2A	2d	.
=58	=58	=58	=58	=58
0r	1E	2B	1e	1g
.	.	2c	.	.
.	1r	1A	1c	1cc
=59	=59	=59	=59	=59
1r	2r	1G	1g	1b
.	1E	.	.	.
2r	.	1C	[1e	2g
[2AA	2E	.	.	[2a
=60	=60	=60	=60	=60
2AA]	2F	0r	2e]	4a]
.	.	.	.	4g
2BB	2G	.	2d	1g
2C	1A	.	2.c	.
2D	.	.	.	2f#i
.	.	.	4c	.
=61	=61	=61	=61	=61
1E	1G	2r	1B	0g
.	.	1E	.	.
1C	1r	.	1c	.
.	.	2E	.	.
=62	=62	=62	=62	=62
2r	1r	2F	2A	0r
1C	.	2G	2c	.
.	1E	1A	2.c	.
2AA	.	.	.	.
.	.	.	4d	.
=63	=63	=63	=63	=63
1C	2E	1G	1e	0r
.	1G	.	.	.
2BB	.	1r	2r	.
2AA	2F	.	[2c	.
=64	=64	=64	=64	=64
1GG	2E	1G	2c]	0r
.	2D	.	2B	.
1C	1r	2E	1c	.
.	.	[2G	.	.
=65	=65	=65	=65	=65
1D	0r	2G]	2B	2r
.	.	2F	2A	2a
2GG	.	1E	1G	1b
[2G	.	.	.	.
=66	=66	=66	=66	=66
4G]	1A	1D	1r	1.dd
4F#i	.	.	.	.
4F#i	.	.	.	.
8EL	.	.	.	.
8F#iJ	.	.	.	.
1G	1B	1r	1d	.
.	.	.	.	2dd
=67	=67	=67	=67	=67
0r	1c	1A	1e	1cc
.	[1G	1B	[1g	[1b
=68	=68	=68	=68	=68
1r	2G]	1.d	2g]	1b]
.	2G	.	2g	.
1D	1A	.	1f	1a
.	.	2d	.	.
=69	=69	=69	=69	=69
1E	0G	1c	1e	0r
[1G	.	[1B	2.d	.
.	.	.	4c	.
=70	=70	=70	=70	=70
2G]	1r	1B]	2d	0r
2G	.	.	1e	.
1F	2r	1A	.	.
.	2A	.	2d	.
=71	=71	=71	=71	=71
1E	1B	0r	1e	1r
[1D	[1d	.	2r	2r
.	.	.	[2f	2a
=72	=72	=72	=72	=72
1D]	2d]	0r	2f]	2a
.	2d	.	2f	2.b-X
1r	1c	.	1e	.
.	.	.	.	4a
.	.	.	.	[2a
=73	=73	=73	=73	=73
1r	1B	1r	1d	2a]
.	.	.	.	2g
[1D	2A	2r	[1d	1a
.	[2F	2A	.	.
=74	=74	=74	=74	=74
2D]	2F]	2A	1d]	0r
2D	2F	2.B	.	.
1C	1E	.	1r	.
.	.	4A	.	.
.	.	[2A	.	.
=75	=75	=75	=75	=75
1BB	1D	2A]	2r	1r
.	.	2G	1d	.
1AA	1E	2.A	.	2r
.	.	.	2c	[2a
.	.	4G	.	.
=76	=76	=76	=76	=76
0r	0r	2F	2d	2a]
.	.	2E	2e	2g
.	.	1D	1f	2a
.	.	.	.	2b
=77	=77	=77	=77	=77
0r	2r	0r	[0e	1cc
.	1A	.	.	.
.	.	.	.	1b
.	2G	.	.	.
=78	=78	=78	=78	=78
2r	2A	1r	0e]	2r
1E	2B	.	.	1g
.	1c	2r	.	.
2C	.	[2A	.	2e
=79	=79	=79	=79	=79
2D	1B	2A]	0r	2f
2E	.	2G	.	2e
1F	1r	2.A	.	2c
.	.	.	.	2d
.	.	4B	.	.
=80	=80	=80	=80	=80
0E	0r	1c	2r	1e
.	.	.	1g	.
.	.	1B	.	2r
.	.	.	2e	2g
=81	=81	=81	=81	=81
0r	0r	2r	2f	2a
.	.	2E	2e	1cc
.	.	1F	2c	.
.	.	.	2d	4b
.	.	.	.	4a
=82	=82	=82	=82	=82
2r	2r	1E	1e	2cc
2E	2G	.	.	2b
1F	2A	1r	2r	2a
.	[2c	.	2A	2a
=83	=83	=83	=83	=83
1E	2c]	1r	1e	0g
.	4B	.	.	.
.	4A	.	.	.
2r	2c	2r	2e	.
2E	2B	2G	2e	.
=84	=84	=84	=84	=84
1F	2A	2A	2.c	0r
.	2A	1c	.	.
.	.	.	4d	.
[1E	[1G	.	1e	.
.	.	4B	.	.
.	.	4A	.	.
=85	=85	=85	=85	=85
2E]	1G]	2c	2r	2r
2E	.	2B	1e	1g
2C	1r	2A	.	.
2D	.	2A	2d	2f
=86	=86	=86	=86	=86
2.E	0r	2.G	2c	1g
.	.	.	2B	.
4D	.	4F	.	.
4C	.	4E	2.c	1g
4BB	.	4D	.	.
[2C	.	[2E	.	.
.	.	.	4B	.
=87	=87	=87	=87	=87
4C]	1r	4E]	4A	1.cc
4BB	.	4D	4G	.
4AA	.	1D	1G	.
4GG	.	.	.	.
1AA	1A	.	.	.
.	.	2C	2F#i	2cc
=88	=88	=88	=88	=88
0GG	1.B	0D	1G	0b
.	.	.	1G	.
.	2G	.	.	.
=89	=89	=89	=89	=89
0r	1A	0r	1.c	2r
.	.	.	.	1e
.	1c	.	.	.
.	.	.	2c	[2g
=90	=90	=90	=90	=90
1G	1B	2r	1d	2g]
.	.	2G	.	2g
2.F	2.A	[1c	1f	1a
8EL	8GL	.	.	.
8DJ	8FJ	.	.	.
=91	=91	=91	=91	=91
2C	1G	2c]	1e	1cc
2C	.	2c	.	.
1G	1r	1d	1r	1b
=92	=92	=92	=92	=92
2.F	0r	1f	1c	2r
.	.	.	.	2a
4E	.	.	.	.
1C	.	1e	2c	2a
.	.	.	2c	2g
=93	=93	=93	=93	=93
0r	0r	0r	1d	1f
.	.	.	2c	2e
.	.	.	[2f	[2a
=94	=94	=94	=94	=94
0r	0r	0r	2f]	2a]
.	.	.	2e	2g
.	.	.	1d	1f
=95	=95	=95	=95	=95
1AA	1r	1r	1c#X	[0e
2AA	2r	1c	1r	.
2AA	2A	.	.	.
=96	=96	=96	=96	=96
1E	2A	2c	0r	0e]
.	2G	2B	.	.
2AA	1A	1c	.	.
2A	.	.	.	.
=97	=97	=97	=97	=97
2A	1E	1B	2r	0r
2G	.	.	2e	.
1A	1c	2r	2e	.
.	.	[2A	2e	.
=98	=98	=98	=98	=98
1E	1B	2A]	1e	1r
.	.	2G	.	.
2r	1A	4F	2c	2r
.	.	4G	.	.
[2F	.	4A	[2f	[2a
.	.	4B	.	.
=99	=99	=99	=99	=99
2F]	0A	1c	2f]	2a]
2C	.	.	2e	2g
1D	.	2.F	1d	1f
.	.	4G	.	.
=100	=100	=100	=100	=100
2AA	0r	1A	2.c	2e
1A	.	.	.	2e
.	.	.	8BL	.
.	.	.	8AJ	.
.	.	1E	1B	1g
2G	.	.	.	.
=101	=101	=101	=101	=101
2.F	1.A	2r	1c	1a
.	.	2A	.	.
4E	.	.	.	.
1C	.	1c	1r	1e
.	2G	.	.	.
=102	=102	=102	=102	=102
0r	2.F	1d	1A	2r
.	.	.	.	1a
.	4E	.	.	.
.	1C	1e	1c	.
.	.	.	.	2g
=103	=103	=103	=103	=103
0r	0r	1r	1d	2.f
.	.	.	.	4e
.	.	[1A	[1e	1c
=104	=104	=104	=104	=104
0r	2r	1A]	2e]	1.cc
.	1A	.	2e	.
.	.	1c	1e	.
.	2G	.	.	2b
=105	=105	=105	=105	=105
0r	2.F	1d	1f	1a
.	4E	.	.	.
.	1C	[1e	2e	1g
.	.	.	[2c	.
=106	=106	=106	=106	=106
1AA	1.c	2e]	4c]	0r
.	.	.	4B	.
.	.	2e	1A	.
1C	.	1e	.	.
.	2B	.	2G	.
=107	=107	=107	=107	=107
1D	1A	1f	1d	0r
[1E	2.G	[1e	1B	.
.	4A	.	.	.
=108	=108	=108	=108	=108
2E]	2B	1e]	2r	1r
2E	2c	.	1e	.
1E	1B	1r	.	2r
.	.	.	2e	2g
=109	=109	=109	=109	=109
1F	1A	0r	2c	1a
.	.	.	2d	.
1E	1r	.	1e	2g
.	.	.	.	2e
=110	=110	=110	=110	=110
0r	2r	0r	2d	1f
.	2D	.	2d	.
.	1A	.	2.c	2e
.	.	.	.	[2f
.	.	.	8BL	.
.	.	.	8AJ	.
=111	=111	=111	=111	=111
2r	2G	0r	2B	4f]
.	.	.	.	4e
2AA	2E	.	2c	1e
1D	1F	.	2.A	.
.	.	.	.	2d
.	.	.	8GL	.
.	.	.	8FJ	.
=112	=112	=112	=112	=112
2C	1E	2r	2G	1e
2AA	.	2A	1A	.
1BB	2r	1d	.	1r
.	2D	.	2G#i	.
=113	=113	=113	=113	=113
2AA	2E	2c	1A	0r
2D	2F	2A	.	.
2C	2G	1c	2r	.
2AA	[2A	.	2A	.
=114	=114	=114	=114	=114
1BB	2A]	1B	1d	1r
.	2G#i	.	.	.
[1AA	[1A	2r	2c	2r
.	.	2c	2A	2e
=115	=115	=115	=115	=115
1AA]	1A]	2A	1c	1a
.	.	2F	.	.
2r	2r	2G	2B	2g
2AA	2c	[2A	2A	2e
=116	=116	=116	=116	=116
1D	2A	2A]	4F	1f
.	.	.	4G	.
.	2F	2D	4A	.
.	.	.	4B	.
2C	2G	2E	1c	2e
2AA	[2A	[2F	.	2c
=117	=117	=117	=117	=117
1D	2A]	4F]	2.A	2d
.	.	4G	.	.
.	2D	4A	.	2.f
.	.	4F	4B	.
1C	1E	2G	1c	.
.	.	.	.	4e
.	.	[2A	.	2e
=118	=118	=118	=118	=118
1FF	1F	4A]	2.c	1a
.	.	4B	.	.
.	.	1c	.	.
.	.	.	4d	.
2.C	2E	.	[1e	1g
.	[2C	4B	.	.
4D	.	4A	.	.
=119	=119	=119	=119	=119
4E	4C]	2.G	1e]	2r
4F	4D	.	.	.
2.G	4E	.	.	2e
.	4F	4A	.	.
.	1G	2B	1r	2d
4F	.	.	.	.
2E	.	[2c	.	2c
=120	=120	=120	=120	=120
1D	0r	2c]	1r	1f
.	.	2B	.	.
1C	.	2c	2r	1e
.	.	2c	2e	.
=121	=121	=121	=121	=121
0r	0r	2f	2d	2r
.	.	2e	2c	2g
.	.	1d	1f	1a
=122	=122	=122	=122	=122
0r	2r	2c	1e	1cc
.	2A	2c	.	.
.	2G	2d	2r	2b
.	2F	[2f	2c	[2a
=123	=123	=123	=123	=123
1r	1B-i	2f]	1d	2a]
.	.	4e	.	2g
.	.	4d	.	.
2r	1A	2c	1f	2a
2D	.	2d	.	2a
=124	=124	=124	=124	=124
2E	2r	2B	1e	1g
2C	2G	2.c	.	.
1F	2A	.	2.c	1r
.	.	4B	.	.
.	[2c	2A	.	.
.	.	.	4d	.
=125	=125	=125	=125	=125
1E	2c]	1G	0e	2r
.	2B	.	.	2g
2r	2A	1c	.	2a
2C	2G	.	.	2cc
=126	=126	=126	=126	=126
2D	2F	1r	1r	2b
1F	2F	.	.	1a
.	1C	2r	1c	.
2E	.	2G	.	2g
=127	=127	=127	=127	=127
1D	0r	1A	2d	2f
.	.	.	1f	2.a
1C	.	1c	.	.
.	.	.	.	2g
.	.	.	2e	.
.	.	.	.	8fL
.	.	.	.	8eJ
=128	=128	=128	=128	=128
1D	1r	2B	2.d	1f
.	.	1A	.	.
.	.	.	4c	.
1E	2r	.	2B	1e
.	2G	2G	2B	.
=129	=129	=129	=129	=129
1AA	2A	2F	2c	2r
.	1c	2E	2A	1e
1E	.	2.e	1G	.
.	2B	.	.	2g
.	.	4d	.	.
=130	=130	=130	=130	=130
2F	2A	2c	0r	4f
.	.	.	.	4e
2D	2F	2d	.	1a
1E	2.G	1B	.	.
.	.	.	.	2g#i
.	4F	.	.	.
=131	=131	=131	=131	=131
0AA	0E	0A	1e	1a
.	.	.	2c	2r
.	.	.	2A	2a
=132	=132	=132	=132	=132
0r	2r	1r	1c	2g
.	2A	.	.	2e
.	2G	2r	1B	1g
.	2E	2e	.	.
=133	=133	=133	=133	=133
2r	2.F	2c	1A	1f
2D	.	2A	.	.
.	4G	.	.	.
2C	2A	[1c	1r	[1e
2AA	2A	.	.	.
=134	=134	=134	=134	=134
2.C	2G	1c]	1r	0e]
.	2E	.	.	.
4D	.	.	.	.
1E	1G	1B	2r	.
.	.	.	2e	.
=135	=135	=135	=135	=135
1AA	1F	4A	2c	2r
.	.	4B	.	.
.	.	4c	2A	2a
.	.	4d	.	.
1r	[1E	4e	1c	2g
.	.	4f	.	.
.	.	[2g	.	2e
=136	=136	=136	=136	=136
0r	1E]	4g]	2B	1g
.	.	4f	.	.
.	.	1e	2c	.
.	1r	.	1d	1f
.	.	2d	.	.
=137	=137	=137	=137	=137
2r	1r	2e	1A	0e
2AA	.	2c	.	.
2GG	2r	2B	1r	.
2AA	2A	2c	.	.
=138	=138	=138	=138	=138
0C	2G	2e	2r	2r
.	2A	2.c	2e	2a
.	2.c	.	2.e	2g
.	.	4d	.	.
.	.	[2e	.	2a
.	8BL	.	4f	.
.	8AJ	.	.	.
=139	=139	=139	=139	=139
0r	2G	4e]	2g	2b
.	.	4d	.	.
.	1A	4c	2e	1cc
.	.	4B	.	.
.	.	2A	2f	.
.	2G	2B	2g	[2b
=140	=140	=140	=140	=140
0r	1A	1c	1e	4b]
.	.	.	.	4a
.	.	.	.	1a
.	1E	1B	2r	.
.	.	.	2e	2g#i
=141	=141	=141	=141	=141
2r	2r	2.A	2c	1a
2D	2F	.	2d	.
.	.	4B	.	.
2C	2E	2c	2e	2r
2D	2D	[2F	[2f	2d
=142	=142	=142	=142	=142
2.F	2A	4F]	2f]	2c
.	.	4G	.	.
.	2.A	4A	2f	2d
8EL	.	4B	.	.
8DJ	.	.	.	.
2C	.	4c	2e	2e
.	4G	4B	.	.
[2D	4F	4A	[2d	[2f
.	4E	4G	.	.
=143	=143	=143	=143	=143
2D]	2D	2F	4d]	4f]
.	.	.	4A	4e
2C	2E	2G	2c	1e
1D	1F	2F	2.A	.
.	.	[2A	.	2d
.	.	.	4B	.
=144	=144	=144	=144	=144
0AA	1E	4A]	1c	[0el
.	.	4G	.	.
.	.	4A	.	.
.	.	4B	.	.
.	2r	2c	4A	.
.	.	.	4B	.
.	2E	2A	4c	.
.	.	.	4A	.
=145	=145	=145	=145	=145
2r	2.E	2G	2B	0e_
2AA	.	2A	2c	.
.	4F	.	.	.
2GG	2G	2B	2r	.
2AA	2E	[2c	2A	.
=146	=146	=146	=146	=146
2.C	2.E	4c]	2G	0e_
.	.	4B	.	.
.	.	2c	2A	.
8BBL	4F	.	.	.
8AAJ	.	.	.	.
2GG	2G	2B	2B	.
[2AA	[2E	[2A	[2c	.
=147	=147	=147	=147	=147
2AA]	4E]	2A]	2c]	0e_
.	4F	.	.	.
2GG	2G	2B	2B	.
1AA	2.C	1c	1A	.
.	4D	.	.	.
=148	=148	=148	=148	=148
00EEl	00El	00Bl	00G#Xl	00e]
==	==	==	==	==
*-	*-	*-	*-	*-
!!!system-decoration: [*]
!!!RDF**kern: i = editorial accidental
!!!RDF**kern: l = terminal long
!!!ENC: Benjamin Ory
!!!END: 2021/2/2
!!!EED: Benjamin Ory
!!!EEV: 2021/04/29
!!!YEC: Copyright 2021 Benjamin Ory, All Rights Reserved
!!!ONB: Translated from MusicXML on 2021/04/29
